img/icon-fill.svg

<svg width="48" height="48" viewBox="0 0 48 48" fill="none" xmlns="http://www.w3.org/2000/svg">
<g fill="#000">
<path d="M33.12 20.38L15.24 2.5L12.41 5.33L17.17 10.09L6.88 20.38C6.3182 20.9425 6.00264 21.705 6.00264 22.5C6.00264 23.295 6.3182 24.0575 6.88 24.62L17.88 35.62C18.4425 36.1818 19.205 36.4974 20 36.4974C20.795 36.4974 21.5575 36.1818 22.12 35.62L33.12 24.62C33.6818 24.0575 33.9974 23.295 33.9974 22.5C33.9974 21.705 33.6818 20.9425 33.12 20.38ZM10.41 22.5L20 12.92L29.59 22.5H10.41ZM38 25.5C38 25.5 34 29.83 34 32.5C34 33.5609 34.4214 34.5783 35.1716 35.3284C35.9217 36.0786 36.9391 36.5 38 36.5C39.0609 36.5 40.0783 36.0786 40.8284 35.3284C41.5786 34.5783 42 33.5609 42 32.5C42 29.83 38 25.5 38 25.5Z"/>
<path d="M48 42.5H0V45.5H48V42.5Z"/>
</g>
</svg>

<svg width="48" height="48" fill="none" xmlns="http://www.w3.org/2000/svg"><g fill="#000"><path d="M33.12 20.38 15.24 2.5l-2.83 2.83 4.76 4.76L6.88 20.38a3 3 0 0 0 0 4.24l11 11a3 3 0 0 0 4.24 0l11-11a3 3 0 0 0 0-4.24ZM10.41 22.5 20 12.92l9.59 9.58H10.41Zm27.59 3s-4 4.33-4 7a4 4 0 1 0 8 0c0-2.67-4-7-4-7Z"/><path d="M48 42.5H0v3h48v-3Z"/></g></svg>
